X:1
T:Title
%%score { ( 1 3 ) | ( 2 4 ) }
L:1/8
M:4/4
K:Db
V:1 treble nm="Grand Piano"
V:3 treble 
V:2 bass 
V:4 bass 
V:1
 z4 z2[Q:1/4=100] [A,DF]>[A,EG] | [DFA]2 [DFA]2 [DGB][DBd][DAc][DGB] | %2
 [DFA]4 [A,DF]2 [A,EG]>[A,DF] | [CE]2 [CA]2 [Ec][GB][FA][EG] |[M:3/4] [DF]6 |[M:1/4] [DF]>[EG] | %6
[M:4/4] [FA]2 [FA]2 [GB][Bd][Ac][GB] | [FA]4 F2 F>F | E2 [EA]2 cdcB |[M:3/4] [A,CA]6 |[M:1/4] F>A | %11
[M:4/4] d6 z2 | [FA]4 F2 A>A | A6 z2 |[M:3/4] [FA]6 |[M:1/4] F>A |[M:4/4] d6 z2 | %17
[M:9/8] B3- B d2- dc>B |[M:4/4] A>=G A>[Ad] [Ge]2 [_Ge]2 |[M:3/4] d6 |] %20
V:2
 z4 z2 D,>D, | D,2 D,2 G,G,G,G, | D,4 D,2 C,>D, | [A,,A,]2 [A,,A,]2 [A,,A,][A,,A,][A,,A,][A,,A,] | %4
[M:3/4] [D,A,]6 |[M:1/4] [D,A,]>[D,A,] |[M:4/4] [D,D]2 [D,D]2 [G,D][G,D][G,D][G,D] | %7
 [D,D]4 [D,A,D]2 [=D,A,_C]>[D,A,C] | [E,A,C]2 [C,A,]2 [E,A,E][E,B,E][E,A,E][E,=G,D] |[M:3/4] A,,6 | %10
[M:1/4][K:treble] D>F |[M:4/4] F6[K:bass] z2 | [D,D]4 [D,A,D]2[K:treble] F>F | G6[K:bass] z2 | %14
[M:3/4] z2 A,2[K:treble] D2 |[M:1/4] D>F |[M:4/4] F6[K:bass] z2 | %17
[M:9/8][K:treble] [G,DG]3- [G,DG] [=G,B,_F]2- [G,B,F][G,CF]>[G,CF] | %18
[M:4/4] [A,DF]>[=A,D_F] [_A,D=F]>[K:bass][F,D] [E,B,]2 [A,C]2 |[M:3/4] z2 B,B, A,2 |] %20
V:3
 x8 | x8 | x8 | x8 |[M:3/4] x6 |[M:1/4] x2 |[M:4/4] x8 | x8 | x8 |[M:3/4] x6 |[M:1/4] x2 | %11
[M:4/4] z2 A,>A, A,>[Ac] [GB]>[FA] | x8 | z2 C>C C>[EGc] [EGc]>[CGB] |[M:3/4] D2 z2 z2 | %15
[M:1/4] x2 |[M:4/4] z2 A,>A, A,>[Ge] [Fd]>[FA] |[M:9/8] x9 |[M:4/4] x8 |[M:3/4] [DF]2 GG F2 |] %20
V:4
 x8 | x8 | x8 | x8 |[M:3/4] x6 |[M:1/4] x2 |[M:4/4] x8 | x8 | x8 |[M:3/4] x6 | %10
[M:1/4][K:treble] x2 |[M:4/4] z2[K:bass] D,>D, D,>[D,A,] [D,D]>[D,D] | x6[K:treble] x2 | %13
 z2 A,>A,[K:bass] A,>A, A,>A, |[M:3/4] D,6[K:treble] |[M:1/4] x2 | %16
[M:4/4] z2[K:bass] D,>D, D,>[D,A,] [D,A,]>[D,D] |[M:9/8][K:treble] x9 |[M:4/4] x7/2[K:bass] x9/2 | %19
[M:3/4] D,6 |] %20

